src/lib/packages/icons/src/assets/line/building-tree.svg

<svg xmlns="http://www.w3.org/2000/svg" width="24" height="24" fill="none"><path fill="currentColor" d="M12.25 8a.75.75 0 0 1-.75.75h-1a.75.75 0 0 1 0-1.5h1a.75.75 0 0 1 .75.75ZM7.5 7.25h-1a.75.75 0 0 0 0 1.5h1a.75.75 0 0 0 0-1.5Zm4 3h-1a.75.75 0 0 0 0 1.5h1a.75.75 0 0 0 0-1.5Zm-4 0h-1a.75.75 0 0 0 0 1.5h1a.75.75 0 0 0 0-1.5ZM22.75 21a.75.75 0 0 1-.75.75H2a.75.75 0 0 1 0-1.5h.25V6c0-2.418 1.332-3.75 3.75-3.75h6c2.418 0 3.75 1.332 3.75 3.75v14.25h3v-2.617a2.745 2.745 0 0 1-2-2.633v-3a2.752 2.752 0 0 1 2.75-2.75A2.752 2.752 0 0 1 22.25 12v3a2.745 2.745 0 0 1-2 2.633v2.617H22a.75.75 0 0 1 .75.75Zm-3.25-4.75c.689 0 1.25-.561 1.25-1.25v-3c0-.689-.561-1.25-1.25-1.25s-1.25.561-1.25 1.25v3c0 .689.561 1.25 1.25 1.25Zm-9.25.75c0-.689-.561-1.25-1.25-1.25s-1.25.561-1.25 1.25v3.25h2.5V17Zm4 3.25V6c0-1.577-.673-2.25-2.25-2.25H6c-1.577 0-2.25.673-2.25 2.25v14.25h2.5V17A2.752 2.752 0 0 1 9 14.25 2.752 2.752 0 0 1 11.75 17v3.25h2.5Z"/></svg>

<svg width="24" height="24" viewBox="0 0 24 24" fill="none" xmlns="http://www.w3.org/2000/svg">
<path d="M12.25 8C12.25 8.414 11.914 8.75 11.5 8.75H10.5C10.086 8.75 9.75 8.414 9.75 8C9.75 7.586 10.086 7.25 10.5 7.25H11.5C11.914 7.25 12.25 7.585 12.25 8ZM7.5 7.25H6.5C6.086 7.25 5.75 7.586 5.75 8C5.75 8.414 6.086 8.75 6.5 8.75H7.5C7.914 8.75 8.25 8.414 8.25 8C8.25 7.586 7.914 7.25 7.5 7.25ZM11.5 10.25H10.5C10.086 10.25 9.75 10.586 9.75 11C9.75 11.414 10.086 11.75 10.5 11.75H11.5C11.914 11.75 12.25 11.414 12.25 11C12.25 10.586 11.914 10.25 11.5 10.25ZM7.5 10.25H6.5C6.086 10.25 5.75 10.586 5.75 11C5.75 11.414 6.086 11.75 6.5 11.75H7.5C7.914 11.75 8.25 11.414 8.25 11C8.25 10.586 7.914 10.25 7.5 10.25ZM22.75 21C22.75 21.414 22.414 21.75 22 21.75H2C1.586 21.75 1.25 21.414 1.25 21C1.25 20.586 1.586 20.25 2 20.25H2.25V6C2.25 3.582 3.582 2.25 6 2.25H12C14.418 2.25 15.75 3.582 15.75 6V20.25H18.75V17.6331C17.599 17.3041 16.75 16.255 16.75 15V12C16.75 10.483 17.983 9.25 19.5 9.25C21.017 9.25 22.25 10.483 22.25 12V15C22.25 16.255 21.401 17.3041 20.25 17.6331V20.25H22C22.414 20.25 22.75 20.586 22.75 21ZM19.5 16.25C20.189 16.25 20.75 15.689 20.75 15V12C20.75 11.311 20.189 10.75 19.5 10.75C18.811 10.75 18.25 11.311 18.25 12V15C18.25 15.689 18.811 16.25 19.5 16.25ZM10.25 17C10.25 16.311 9.689 15.75 9 15.75C8.311 15.75 7.75 16.311 7.75 17V20.25H10.25V17ZM14.25 20.25V6C14.25 4.423 13.577 3.75 12 3.75H6C4.423 3.75 3.75 4.423 3.75 6V20.25H6.25V17C6.25 15.483 7.483 14.25 9 14.25C10.517 14.25 11.75 15.483 11.75 17V20.25H14.25Z" fill="currentColor"/>
</svg>
